img/yandex_logo.svg

<svg width="347" height="52" viewBox="0 0 347 52" fill="none" xmlns="http://www.w3.org/2000/svg">
<g clip-path="url(#clip0_4_35)">
<mask id="mask0_4_35" style="mask-type:luminance" maskUnits="userSpaceOnUse" x="0" y="0" width="347" height="52">
<path d="M346.433 0H0.753479V51.354H346.433V0Z" fill="white"/>
</mask>
<g mask="url(#mask0_4_35)">
<mask id="mask1_4_35" style="mask-type:luminance" maskUnits="userSpaceOnUse" x="167" y="0" width="180" height="52">
<path d="M346.433 0H167.192V51.354H346.433V0Z" fill="white"/>
</mask>
<g mask="url(#mask1_4_35)">
<path d="M192.798 51.354C197.862 51.354 202.813 49.8481 207.024 47.0267C211.234 44.2053 214.516 40.1951 216.454 35.5032C218.393 30.8113 218.9 25.6485 217.912 20.6677C216.924 15.6868 214.485 11.1116 210.904 7.52064C207.323 3.92964 202.76 1.48414 197.793 0.493388C192.826 -0.497365 187.678 0.0111256 182.999 1.95456C178.32 3.89799 174.321 7.18908 171.507 11.4116C168.694 15.6342 167.192 20.5986 167.192 25.677C167.192 32.487 169.89 39.0181 174.692 43.8334C179.494 48.6488 186.007 51.354 192.798 51.354Z" fill="white"/>
<path fill-rule="evenodd" clip-rule="evenodd" d="M218.409 25.6779C218.406 31.0944 216.694 36.3712 213.518 40.7523C210.341 45.1335 205.864 48.3942 200.727 50.0676C195.589 51.741 190.056 51.7411 184.918 50.0679C179.781 48.3948 175.303 45.1342 172.127 40.7532C168.951 36.3722 167.238 31.0955 167.235 25.679C167.232 20.2624 168.939 14.9839 172.111 10.5994C175.282 6.21488 179.756 2.94937 184.892 1.27057C190.027 -0.408237 195.561 -0.414205 200.7 1.25352L194.885 19.2562H177.846L175.759 25.6779H192.803L187.811 41.0841H194.851L199.862 25.6779H218.409ZM217.605 19.2562H201.925L206.812 4.18118C212.155 7.68462 216.003 13.0597 217.605 19.2562Z" fill="url(#paint0_linear_4_35)"/>
</g>
</g>
<path d="M47.3563 28.0288H38.521V16.9468H31.9066V44.9372H38.521V33.2505H47.3563V44.9372H53.9707V16.9468H47.3563V28.0288Z" fill="#222222"/>
<path d="M1.60541 18.785C1.60541 24.7363 4.42445 28.2447 9.50256 31.8395L0.753479 44.9324H8.00928L17.7826 30.2989L14.4323 28.0287C10.2923 25.2499 8.28687 23.0661 8.28687 18.401C8.26294 14.2927 11.1681 11.5186 16.6291 11.5186H19.6157V44.9324H26.3594V6.23926H16.5861C6.76967 6.23926 1.60541 11.2979 1.60541 18.785Z" fill="#222222"/>
<path d="M80.7731 16.9468H61.5376V19.3466C61.5376 26.1953 61.1117 35.0551 58.7664 39.7201H56.7036V51.354H62.8059V44.9323H77.6143V51.3108H83.7166V39.7153H80.7731V16.9468ZM74.2018 39.7153H64.8544C66.6875 35.4774 67.1996 27.8607 67.1996 23.0229V22.2118H74.2018V39.7153Z" fill="#222222"/>
<path d="M135.101 16.9468H128.443L119.139 29.8717V16.9468H112.525V44.9372H119.139V31.1964L128.912 44.9372H136.379L125.797 29.8717L135.101 16.9468Z" fill="#222222"/>
<path d="M97.2471 16.4333C89.1777 16.3901 85.3392 22.5526 85.3392 31.0285C85.3392 40.7857 90.1253 45.4892 98.525 45.4892C102.751 45.4892 105.867 44.3805 107.829 43.0511V37.6613C105.216 39.3047 102.207 40.207 99.1233 40.2722C94.2989 40.2722 92.4658 38.002 92.2073 33.337H108.126V29.8286C108.126 20.0713 103.862 16.4333 97.2471 16.4333ZM101.387 28.432H92.169C92.3413 23.9781 93.9638 21.6263 97.1227 21.6263C100.406 21.6263 101.392 24.3668 101.392 27.8656L101.387 28.432Z" fill="#222222"/>
<path d="M149.483 40.2722C144.745 40.2722 142.826 36.591 142.826 30.8125C142.826 24.7364 145.219 21.6119 149.526 21.6119C151.756 21.6313 153.943 22.2211 155.882 23.3253V17.7148C154.518 16.9469 152.053 16.3901 148.799 16.3901C140.346 16.3901 135.996 22.4662 135.996 30.9852C135.996 40.3106 140.265 45.4892 149.095 45.4892C152.125 45.4892 154.303 44.9324 155.925 43.7806V38.3956C154.031 39.6915 151.775 40.3488 149.483 40.2722Z" fill="#222222"/>
<path d="M256.616 6.26807H231.207V44.9371H237.907V11.5187H249.873V44.9371H256.573L256.616 6.26807Z" fill="#222222"/>
<path d="M259.579 39.2067L259.967 39.4851C260.313 39.6492 260.695 39.7251 261.077 39.7058C262.149 39.7058 262.853 39.1491 263.188 38.0356C263.523 36.9222 263.745 34.8824 263.853 31.9163L264.404 16.9517H283.323V44.9372H276.723V22.1831H270.023L269.635 32.1947C269.578 34.7384 269.292 37.2717 268.778 39.7634C268.335 41.728 267.596 43.1678 266.562 44.0829C265.529 44.998 264.067 45.4604 262.178 45.47C261.538 45.493 260.899 45.3987 260.292 45.1916L259.57 44.918L259.579 39.2067Z" fill="#222222"/>
<path d="M339.613 45.4891C335.213 45.4891 331.922 44.2477 329.74 41.7648C327.557 39.2819 326.485 35.6839 326.523 30.9708C326.47 28.3766 326.959 25.8 327.959 23.4069C328.844 21.3112 330.332 19.5281 332.233 18.2859C334.148 17.0252 336.514 16.3949 339.331 16.3949C340.746 16.3744 342.16 16.5048 343.548 16.7837C344.551 16.942 345.522 17.2664 346.419 17.7436V23.3493C345.561 22.8567 344.649 22.4654 343.701 22.183C342.517 21.8049 341.282 21.617 340.039 21.6263C339.081 21.58 338.126 21.7682 337.256 22.1745C336.387 22.5809 335.629 23.1932 335.048 23.9588C333.899 25.4819 333.324 27.7632 333.324 30.8028C333.324 33.6825 333.843 35.983 334.88 37.7044C335.917 39.4258 337.618 40.2785 339.982 40.2625C341.221 40.2914 342.458 40.1295 343.648 39.7826C344.639 39.4675 345.574 38.9978 346.419 38.3908V43.7661C344.84 44.918 342.571 45.4923 339.613 45.4891Z" fill="#222222"/>
<path fill-rule="evenodd" clip-rule="evenodd" d="M319.722 20.1577C317.488 17.6395 314.604 16.3789 311.068 16.3757C308.133 16.2967 305.284 17.3754 303.133 19.3801C300.989 21.3479 299.676 24.2276 299.194 28.0191H295.422V16.9516H288.822V44.9372H295.422V33.2505H299.141C299.508 37.2213 300.765 40.2609 302.913 42.3695C305.106 44.4484 308.032 45.5688 311.049 45.4843C314.6 45.4843 317.485 44.2428 319.703 41.7599C321.92 39.277 323.048 35.6598 323.086 30.9084C323.099 26.2433 321.978 22.6598 319.722 20.1577ZM314.935 38.0164C314.564 38.7171 314.002 39.298 313.316 39.6921C312.629 40.0862 311.845 40.2773 311.054 40.2433C310.256 40.2747 309.465 40.0831 308.77 39.6898C308.074 39.2966 307.501 38.7172 307.115 38.0164C306.263 36.5317 305.837 34.1768 305.837 30.9516C305.837 27.7264 306.263 25.3522 307.115 23.8292C307.502 23.1293 308.075 22.5509 308.77 22.1585C309.466 21.7661 310.257 21.5752 311.054 21.6071C311.844 21.5721 312.628 21.7622 313.315 22.1555C314.002 22.5487 314.564 23.129 314.935 23.8292C315.826 25.3139 316.269 27.6688 316.266 30.894C316.263 34.1192 315.824 36.4997 314.95 38.0356L314.935 38.0164Z" fill="#222222"/>
</g>
<defs>
<linearGradient id="paint0_linear_4_35" x1="167.197" y1="25.6779" x2="218.409" y2="25.6779" gradientUnits="userSpaceOnUse">
<stop stop-color="#FF5C4D"/>
<stop offset="0.4" stop-color="#EB469F"/>
<stop offset="1" stop-color="#8341EF"/>
</linearGradient>
<clipPath id="clip0_4_35">
<rect width="346.039" height="51.354" fill="white" transform="translate(0.753479)"/>
</clipPath>
</defs>
</svg>

<svg width="347" height="52" fill="none" xmlns="http://www.w3.org/2000/svg"><g clip-path="url(#a)"><mask id="b" style="mask-type:luminance" maskUnits="userSpaceOnUse" x="0" y="0" width="347" height="52"><path d="M346.433 0H.753v51.354h345.68V0Z" fill="#fff"/></mask><g mask="url(#b)"><mask id="c" style="mask-type:luminance" maskUnits="userSpaceOnUse" x="167" y="0" width="180" height="52"><path d="M346.433 0H167.192v51.354h179.241V0Z" fill="#fff"/></mask><g mask="url(#c)"><path d="M192.798 51.354a25.557 25.557 0 0 0 14.226-4.327 25.665 25.665 0 0 0 9.43-11.524 25.736 25.736 0 0 0 1.458-14.835 25.7 25.7 0 0 0-7.008-13.147A25.585 25.585 0 0 0 197.793.493a25.539 25.539 0 0 0-14.794 1.462 25.624 25.624 0 0 0-11.492 9.457 25.733 25.733 0 0 0 3.185 32.421 25.57 25.57 0 0 0 18.106 7.521Z" fill="#fff"/><path fill-rule="evenodd" clip-rule="evenodd" d="M218.409 25.678a25.71 25.71 0 0 1-4.891 15.074 25.595 25.595 0 0 1-12.791 9.316 25.52 25.52 0 0 1-15.809 0 25.589 25.589 0 0 1-12.791-9.315 25.71 25.71 0 0 1-.016-30.154 25.586 25.586 0 0 1 12.781-9.328 25.518 25.518 0 0 1 15.808-.017l-5.815 18.002h-17.039l-2.087 6.422h17.044l-4.992 15.406h7.04l5.011-15.406h18.547Zm-.804-6.422h-15.68l4.887-15.075a25.722 25.722 0 0 1 10.793 15.075Z" fill="url(#d)"/></g></g><path d="M47.356 28.029h-8.835V16.947h-6.614v27.99h6.614V33.251h8.835v11.686h6.615v-27.99h-6.615v11.082ZM1.605 18.785c0 5.951 2.82 9.46 7.898 13.055L.753 44.931H8.01L17.783 30.3l-3.35-2.27c-4.14-2.78-6.146-4.963-6.146-9.628-.024-4.108 2.881-6.882 8.342-6.882h2.987v33.413h6.743V6.24h-9.773c-9.816 0-14.98 5.059-14.98 12.546ZM80.773 16.947H61.538v2.4c0 6.848-.426 15.708-2.772 20.373h-2.062v11.634h6.102v-6.422h14.808v6.379h6.103V39.715h-2.944V16.947Zm-6.571 22.768h-9.348c1.834-4.238 2.346-11.854 2.346-16.692v-.811h7.002v17.503ZM135.101 16.947h-6.658l-9.304 12.925V16.947h-6.614v27.99h6.614v-13.74l9.773 13.74h7.467l-10.582-15.065 9.304-12.925ZM97.247 16.433c-8.07-.043-11.908 6.12-11.908 14.596 0 9.757 4.786 14.46 13.186 14.46 4.226 0 7.342-1.108 9.304-2.438v-5.39a17.028 17.028 0 0 1-8.706 2.611c-4.824 0-6.657-2.27-6.916-6.935h15.919v-3.508c0-9.758-4.264-13.396-10.879-13.396Zm4.14 11.999h-9.218c.172-4.454 1.795-6.806 4.954-6.806 3.283 0 4.269 2.74 4.269 6.24l-.005.566ZM149.483 40.272c-4.738 0-6.657-3.681-6.657-9.46 0-6.076 2.393-9.2 6.7-9.2 2.23.02 4.417.61 6.356 1.713v-5.61c-1.364-.768-3.829-1.325-7.083-1.325-8.453 0-12.803 6.076-12.803 14.595 0 9.326 4.269 14.504 13.099 14.504 3.03 0 5.208-.557 6.83-1.708v-5.385a10.77 10.77 0 0 1-6.442 1.876ZM256.616 6.268h-25.409v38.67h6.7v-33.42h11.966v33.42h6.7l.043-38.67ZM259.579 39.207l.388.278c.346.164.728.24 1.11.22 1.072 0 1.776-.556 2.111-1.67.335-1.113.557-3.153.665-6.119l.551-14.964h18.919v27.985h-6.6V22.183h-6.7l-.388 10.012a42.134 42.134 0 0 1-.857 7.568c-.443 1.965-1.182 3.405-2.216 4.32-1.033.915-2.495 1.377-4.384 1.387a5.255 5.255 0 0 1-1.886-.278l-.722-.274.009-5.711ZM339.613 45.49c-4.4 0-7.691-1.242-9.873-3.725-2.183-2.483-3.255-6.081-3.217-10.794a18.632 18.632 0 0 1 1.436-7.564 11.426 11.426 0 0 1 4.274-5.121c1.915-1.26 4.281-1.891 7.098-1.891 1.415-.02 2.829.11 4.217.389a9.153 9.153 0 0 1 2.871.96v5.605a12.795 12.795 0 0 0-2.718-1.166 11.744 11.744 0 0 0-3.662-.557 5.903 5.903 0 0 0-4.991 2.333c-1.149 1.523-1.724 3.804-1.724 6.844 0 2.88.519 5.18 1.556 6.901 1.037 1.722 2.738 2.575 5.102 2.559a12.094 12.094 0 0 0 3.666-.48 9.882 9.882 0 0 0 2.771-1.392v5.375c-1.579 1.152-3.848 1.726-6.806 1.723Z" fill="#222"/><path fill-rule="evenodd" clip-rule="evenodd" d="M319.722 20.158c-2.234-2.518-5.118-3.78-8.654-3.782-2.935-.08-5.784 1-7.935 3.004-2.144 1.968-3.457 4.848-3.939 8.64h-3.772V16.951h-6.6v27.985h6.6V33.251h3.719c.367 3.97 1.624 7.01 3.772 9.119a11.362 11.362 0 0 0 8.136 3.114c3.551 0 6.436-1.241 8.654-3.724 2.217-2.483 3.345-6.1 3.383-10.852.013-4.665-1.108-8.248-3.364-10.75Zm-4.787 17.858a4.184 4.184 0 0 1-3.881 2.227 4.31 4.31 0 0 1-3.939-2.227c-.852-1.484-1.278-3.84-1.278-7.064 0-3.226.426-5.6 1.278-7.123a4.301 4.301 0 0 1 3.939-2.222 4.179 4.179 0 0 1 3.881 2.222c.891 1.485 1.334 3.84 1.331 7.065-.003 3.225-.442 5.606-1.316 7.142l-.015-.02Z" fill="#222"/></g><defs><linearGradient id="d" x1="167.197" y1="25.678" x2="218.409" y2="25.678" gradientUnits="userSpaceOnUse"><stop stop-color="#FF5C4D"/><stop offset=".4" stop-color="#EB469F"/><stop offset="1" stop-color="#8341EF"/></linearGradient><clipPath id="a"><path fill="#fff" transform="translate(.753)" d="M0 0h346.039v51.354H0z"/></clipPath></defs></svg>
